assets/arrow-left.svg

<svg width="22" height="12" viewBox="0 0 22 12" fill="none" xmlns="http://www.w3.org/2000/svg">
<path d="M0.46967 5.46967C0.176777 5.76256 0.176777 6.23744 0.46967 6.53033L5.24264 11.3033C5.53553 11.5962 6.01041 11.5962 6.3033 11.3033C6.59619 11.0104 6.59619 10.5355 6.3033 10.2426L2.06066 6L6.3033 1.75736C6.59619 1.46447 6.59619 0.989592 6.3033 0.696699C6.01041 0.403806 5.53553 0.403806 5.24264 0.696699L0.46967 5.46967ZM21 6.75C21.4142 6.75 21.75 6.41421 21.75 6C21.75 5.58579 21.4142 5.25 21 5.25V6.75ZM1 6.75H21V5.25H1V6.75Z" fill="#2A2238"/>
</svg>

<svg xmlns="http://www.w3.org/2000/svg" fill="none" viewBox="0 0 22 12">
  <path fill="#2A2238" d="M.46967 5.46967c-.292893.29289-.292893.76777 0 1.06066l4.77297 4.77297c.29289.2929.76777.2929 1.06066 0s.29289-.7678 0-1.0607L2.06066 6 6.3033 1.75736c.29289-.29289.29289-.767768 0-1.060661-.29289-.292893-.76777-.292893-1.06066 0L.46967 5.46967ZM21 6.75c.4142 0 .75-.33579.75-.75s-.3358-.75-.75-.75v1.5Zm-20 0h20v-1.5H1v1.5Z"/>
</svg>
